<?xml version="1.0" encoding="UTF-8"?>
<map version="1.10" tiledversion="1.12.2" orientation="orthogonal" renderorder="right-down" width="30" height="20" tilewidth="200" tileheight="200" infinite="1" nextlayerid="3" nextobjectid="1">
 <editorsettings>
  <export target="Factory.csv" format="csv"/>
 </editorsettings>
 <tileset firstgid="1" source="Factory.tsx"/>
 <layer id="1" name="Floor" width="30" height="20" visible="0">
  <data encoding="csv">
   <chunk x="0" y="-32" width="16" height="16">
0,0,0,0,0,0,0,0,0,0,0,0,0,0,0,0,
0,0,0,0,0,0,0,0,0,0,0,0,0,0,0,0,
0,0,0,0,0,0,0,0,0,0,0,0,0,0,0,0,
0,0,0,0,0,0,0,0,0,0,0,0,0,0,0,0,
0,0,0,0,0,0,0,0,0,0,0,0,0,0,0,0,
0,0,0,0,0,0,0,0,0,0,0,0,0,0,0,0,
0,0,0,0,0,0,0,0,0,0,0,0,0,0,0,0,
0,0,0,0,0,0,0,0,0,0,0,0,0,0,0,0,
0,0,0,0,0,0,0,0,0,0,0,0,0,0,0,0,
0,0,0,0,0,0,0,0,0,0,0,0,0,0,0,0,
0,0,0,0,0,0,0,0,0,0,0,0,0,0,0,0,
0,0,0,0,0,0,0,0,0,0,0,0,0,0,0,0,
5,5,5,5,5,5,5,5,5,5,5,5,5,5,5,5,
5,2,1,1,1,2,3,4,4,4,2,4,4,2,2,3,
5,1,2,4,2,1,1,3,2,2,3,4,3,1,1,2,
5,3,3,1,3,4,2,4,3,3,4,2,2,4,2,2
</chunk>
   <chunk x="16" y="-32" width="16" height="16">
0,0,0,0,0,0,0,0,0,0,0,0,0,0,0,0,
0,0,0,0,0,0,0,0,0,0,0,0,0,0,0,0,
0,0,0,0,0,0,0,0,0,0,0,0,0,0,0,0,
0,0,0,0,0,0,0,0,0,0,0,0,0,0,0,0,
0,0,0,0,0,0,0,0,0,0,0,0,0,0,0,0,
0,0,0,0,0,0,0,0,0,0,0,0,0,0,0,0,
0,0,0,0,0,0,0,0,0,0,0,0,0,0,0,0,
0,0,0,0,0,0,0,0,0,0,0,0,0,0,0,0,
0,0,0,0,0,0,0,0,0,0,0,0,0,0,0,0,
0,0,0,0,0,0,0,0,0,0,0,0,0,0,0,0,
0,0,0,0,0,0,0,0,0,0,0,0,0,0,0,0,
0,0,0,0,0,0,0,0,0,0,0,0,0,0,0,0,
5,5,5,5,5,5,5,5,5,5,5,5,5,5,5,5,
3,3,4,2,1,1,1,2,3,2,2,3,1,3,3,5,
1,1,2,2,1,2,2,2,4,3,1,2,3,2,2,5,
1,2,2,4,4,1,4,1,4,3,3,1,3,2,2,5
</chunk>
   <chunk x="32" y="-32" width="16" height="16">
0,0,0,0,0,0,0,0,0,0,0,0,0,0,0,0,
0,0,0,0,0,0,0,0,0,0,0,0,0,0,0,0,
0,0,0,0,0,0,0,0,0,0,0,0,0,0,0,0,
0,0,0,0,0,0,0,0,0,0,0,0,0,0,0,0,
0,0,0,0,0,0,0,0,0,0,0,0,0,0,0,0,
0,0,0,0,0,0,0,0,0,0,0,0,0,0,0,0,
0,0,0,0,0,0,0,0,0,0,0,0,0,0,0,0,
0,0,0,0,0,0,0,0,0,0,0,0,0,0,0,0,
0,0,0,0,0,0,0,0,0,0,0,0,0,0,0,0,
0,0,0,0,0,0,0,0,0,0,0,0,0,0,0,0,
0,0,0,0,0,0,0,0,0,0,0,0,0,0,0,0,
0,0,0,0,0,0,0,0,0,0,0,0,0,0,0,0,
5,5,5,5,5,5,5,5,5,5,5,5,5,5,5,5,
5,4,2,3,4,1,3,1,3,4,3,4,3,1,2,1,
5,2,1,4,1,1,1,2,3,2,1,4,4,4,1,3,
5,3,1,3,4,4,4,1,2,3,4,3,3,3,3,1
</chunk>
   <chunk x="48" y="-32" width="16" height="16">
0,0,0,0,0,0,0,0,0,0,0,0,0,0,0,0,
0,0,0,0,0,0,0,0,0,0,0,0,0,0,0,0,
0,0,0,0,0,0,0,0,0,0,0,0,0,0,0,0,
0,0,0,0,0,0,0,0,0,0,0,0,0,0,0,0,
0,0,0,0,0,0,0,0,0,0,0,0,0,0,0,0,
0,0,0,0,0,0,0,0,0,0,0,0,0,0,0,0,
0,0,0,0,0,0,0,0,0,0,0,0,0,0,0,0,
0,0,0,0,0,0,0,0,0,0,0,0,0,0,0,0,
0,0,0,0,0,0,0,0,0,0,0,0,0,0,0,0,
0,0,0,0,0,0,0,0,0,0,0,0,0,0,0,0,
0,0,0,0,0,0,0,0,0,0,0,0,0,0,0,0,
0,0,0,0,0,0,0,0,0,0,0,0,0,0,0,0,
5,5,5,5,5,5,5,5,0,0,0,0,0,0,0,0,
4,2,3,3,4,2,3,5,0,0,0,0,0,0,0,0,
1,2,1,2,2,3,3,5,0,0,0,0,0,0,0,0,
2,1,3,3,3,4,1,5,0,0,0,0,0,0,0,0
</chunk>
   <chunk x="-16" y="-16" width="16" height="16">
0,0,0,0,0,0,0,0,0,0,0,0,0,0,0,0,
0,0,0,0,0,0,0,0,0,0,0,0,0,0,0,0,
0,0,0,0,0,0,0,0,5,5,5,5,5,5,5,5,
0,0,0,0,0,0,0,0,5,2,2,2,3,2,1,5,
0,0,0,0,0,0,0,0,5,4,4,3,3,4,2,5,
0,0,0,0,0,0,0,0,5,2,2,4,1,2,2,2,
0,0,0,0,0,0,0,0,5,3,1,3,1,1,3,3,
0,0,0,0,0,0,0,0,5,4,3,3,2,4,1,1,
0,0,0,0,0,0,0,0,5,1,1,2,1,4,4,5,
0,0,0,0,0,0,0,0,5,4,4,3,1,4,3,5,
0,0,0,0,0,0,0,0,5,2,2,1,1,2,4,5,
0,0,0,0,0,0,0,0,5,1,4,2,4,2,2,5,
0,0,0,0,0,0,0,0,5,1,1,4,2,4,4,5,
0,0,0,0,0,0,0,0,5,5,5,5,5,5,5,5,
0,0,0,0,0,0,0,0,0,0,0,0,0,0,0,0,
0,0,0,0,0,0,0,0,0,0,0,0,0,0,0,0
</chunk>
   <chunk x="0" y="-16" width="16" height="16">
5,3,2,3,3,2,3,1,3,4,2,3,3,2,3,3,
5,1,2,4,2,3,3,3,3,2,1,4,1,4,3,2,
5,3,2,4,3,3,2,3,1,3,1,3,2,2,2,1,
5,1,2,1,2,1,1,4,4,1,3,3,1,1,2,2,
5,3,2,1,1,2,1,3,2,1,3,3,2,1,3,4,
1,4,3,3,3,3,3,2,1,1,4,4,3,2,2,3,
3,2,2,2,2,2,4,3,2,3,3,1,2,3,3,3,
3,4,3,1,2,1,2,3,1,4,1,1,1,4,4,1,
5,2,4,4,2,1,3,1,3,4,4,2,3,3,1,1,
5,1,1,4,4,2,3,1,4,3,3,3,1,4,2,4,
5,4,2,3,1,2,2,2,3,4,1,2,3,3,3,3,
5,1,4,2,1,3,4,3,4,1,4,3,4,2,2,3,
5,3,3,3,1,1,1,3,1,1,3,1,1,3,2,1,
5,1,3,1,2,3,4,2,2,3,3,4,1,3,4,1,
5,1,4,4,2,2,2,3,2,1,4,3,3,4,2,1,
5,4,2,2,2,4,1,2,4,3,3,3,1,3,2,2
</chunk>
   <chunk x="16" y="-16" width="16" height="16">
2,1,2,1,1,1,1,4,3,3,2,2,1,2,3,5,
3,1,3,3,3,1,3,4,1,2,4,3,4,3,3,5,
1,2,3,3,4,2,2,2,2,4,1,4,1,4,3,5,
3,3,2,2,3,3,2,3,4,3,1,2,2,3,2,5,
1,3,2,1,4,4,2,4,2,4,3,3,3,1,3,4,
3,2,3,1,1,4,3,2,2,1,2,3,3,3,1,4,
3,2,2,3,3,3,3,2,2,4,1,4,3,1,2,3,
4,1,3,4,3,1,3,2,2,4,1,3,1,3,3,3,
1,3,1,1,2,4,3,2,1,3,4,3,2,1,4,1,
4,2,4,3,2,2,1,2,1,1,4,1,4,3,3,3,
3,1,4,2,1,2,2,3,4,1,1,4,1,3,2,2,
1,2,3,2,3,2,2,1,1,1,4,3,2,2,1,4,
4,3,3,4,1,4,4,2,1,4,4,1,2,1,4,5,
1,3,1,4,2,1,1,4,4,2,1,3,1,4,1,5,
4,3,3,3,4,3,1,3,4,1,2,2,4,3,1,5,
3,1,3,4,4,2,2,1,1,3,1,1,2,3,1,5
</chunk>
   <chunk x="32" y="-16" width="16" height="16">
5,1,2,2,3,4,4,4,4,1,2,1,4,2,2,3,
5,2,4,2,1,1,1,2,2,2,2,3,2,2,2,1,
5,2,3,3,4,4,1,3,3,4,4,3,1,3,1,3,
5,3,2,4,4,2,1,1,4,2,4,1,4,3,4,1,
2,3,2,2,3,3,4,4,2,2,4,1,4,4,4,3,
3,2,4,4,2,4,1,4,4,1,2,1,2,4,3,4,
1,2,3,2,1,1,1,1,1,1,3,1,1,2,3,4,
1,3,2,2,3,3,1,1,3,1,3,3,4,3,3,3,
1,1,2,1,2,4,4,1,4,1,3,3,2,1,2,2,
4,1,2,2,2,4,3,3,1,2,1,4,1,2,1,2,
3,1,4,1,1,3,1,3,1,3,1,4,2,4,3,4,
2,2,1,4,4,4,1,1,3,2,3,1,3,1,4,1,
5,1,2,4,2,2,2,3,2,4,2,2,4,1,4,3,
5,4,2,1,4,4,1,1,3,1,4,3,1,4,3,4,
5,2,4,2,1,2,1,1,2,2,4,3,2,2,3,4,
5,2,2,4,1,2,1,3,3,2,1,4,3,1,1,1
</chunk>
   <chunk x="48" y="-16" width="16" height="16">
1,4,4,2,2,3,3,5,0,0,0,0,0,0,0,0,
1,4,1,2,1,3,4,5,0,0,0,0,0,0,0,0,
1,3,3,2,2,1,1,5,0,0,0,0,0,0,0,0,
2,2,3,2,4,2,2,5,0,0,0,0,0,0,0,0,
3,1,2,3,1,1,4,5,0,0,0,0,0,0,0,0,
3,1,4,3,2,2,4,5,0,0,0,0,0,0,0,0,
2,1,1,4,2,1,2,5,0,0,0,0,0,0,0,0,
4,1,2,1,4,3,3,5,0,0,0,0,0,0,0,0,
1,3,3,3,2,3,3,5,0,0,0,0,0,0,0,0,
4,3,4,2,1,2,2,5,0,0,0,0,0,0,0,0,
1,1,4,2,2,1,4,5,0,0,0,0,0,0,0,0,
2,3,2,1,2,1,1,5,0,0,0,0,0,0,0,0,
4,3,2,3,4,4,4,5,0,0,0,0,0,0,0,0,
4,3,3,4,2,4,1,5,0,0,0,0,0,0,0,0,
2,4,2,3,1,4,4,5,0,0,0,0,0,0,0,0,
3,3,2,4,1,4,3,5,0,0,0,0,0,0,0,0
</chunk>
   <chunk x="0" y="0" width="16" height="16">
5,4,4,4,1,3,3,4,1,1,2,3,1,3,4,3,
5,1,3,4,4,1,3,4,3,1,2,1,3,1,1,4,
5,4,3,2,4,4,3,2,4,2,3,1,1,3,4,1,
5,2,1,2,2,4,3,4,1,3,2,1,2,4,2,1,
5,2,4,3,2,4,2,1,2,3,1,3,3,3,3,1,
5,3,3,1,4,1,1,4,2,4,3,1,4,2,1,3,
5,4,2,1,4,4,3,2,1,4,2,4,3,2,3,4,
5,3,3,2,2,3,2,3,3,1,1,3,1,3,1,3,
5,3,2,2,1,4,2,2,3,4,4,4,4,2,4,2,
5,5,5,5,5,5,5,5,5,5,5,5,5,5,5,5,
0,0,0,0,0,0,0,0,0,0,0,0,0,0,0,0,
0,0,0,0,0,0,0,0,0,0,0,0,0,0,0,0,
0,0,0,0,0,0,0,0,0,0,0,0,0,0,0,0,
0,0,0,0,0,0,0,0,0,0,0,0,0,0,0,0,
0,0,0,0,0,0,0,0,0,0,0,0,0,0,0,0,
0,0,0,0,0,0,0,0,0,0,0,0,0,0,0,0
</chunk>
   <chunk x="16" y="0" width="16" height="16">
1,1,1,4,4,1,1,2,1,4,2,1,4,1,2,5,
2,2,2,3,1,1,2,2,3,4,2,4,3,4,3,5,
1,1,2,2,1,3,2,3,1,2,3,1,2,4,1,5,
3,4,2,3,4,2,1,1,2,2,3,1,1,1,1,5,
3,1,3,2,3,2,4,3,1,2,3,4,1,4,1,5,
3,4,1,1,3,2,3,3,2,3,3,2,1,1,1,5,
3,3,4,2,3,1,1,3,3,1,4,3,1,4,1,5,
4,1,4,3,4,3,1,4,1,2,3,1,1,4,2,5,
2,1,4,3,1,2,2,2,4,2,3,4,3,4,4,5,
5,5,5,5,5,5,5,5,5,5,5,5,5,5,5,5,
0,0,0,0,0,0,0,0,0,0,0,0,0,0,0,0,
0,0,0,0,0,0,0,0,0,0,0,0,0,0,0,0,
0,0,0,0,0,0,0,0,0,0,0,0,0,0,0,0,
0,0,0,0,0,0,0,0,0,0,0,0,0,0,0,0,
0,0,0,0,0,0,0,0,0,0,0,0,0,0,0,0,
0,0,0,0,0,0,0,0,0,0,0,0,0,0,0,0
</chunk>
   <chunk x="32" y="0" width="16" height="16">
5,2,4,1,1,4,1,1,3,3,2,1,3,2,3,1,
5,3,4,1,2,1,4,4,3,1,2,1,1,2,4,1,
5,3,3,4,1,1,2,4,1,3,3,3,3,3,3,2,
5,5,5,5,5,5,5,5,5,5,5,5,5,5,5,5,
0,0,0,0,0,0,0,0,0,0,0,0,0,0,0,0,
0,0,0,0,0,0,0,0,0,0,0,0,0,0,0,0,
0,0,0,0,0,0,0,0,0,0,0,0,0,0,0,0,
0,0,0,0,0,0,0,0,0,0,0,0,0,0,0,0,
0,0,0,0,0,0,0,0,0,0,0,0,0,0,0,0,
0,0,0,0,0,0,0,0,0,0,0,0,0,0,0,0,
0,0,0,0,0,0,0,0,0,0,0,0,0,0,0,0,
0,0,0,0,0,0,0,0,0,0,0,0,0,0,0,0,
0,0,0,0,0,0,0,0,0,0,0,0,0,0,0,0,
0,0,0,0,0,0,0,0,0,0,0,0,0,0,0,0,
0,0,0,0,0,0,0,0,0,0,0,0,0,0,0,0,
0,0,0,0,0,0,0,0,0,0,0,0,0,0,0,0
</chunk>
   <chunk x="48" y="0" width="16" height="16">
1,1,3,4,2,3,3,5,0,0,0,0,0,0,0,0,
1,4,1,2,1,3,3,5,0,0,0,0,0,0,0,0,
4,4,4,1,2,3,4,5,0,0,0,0,0,0,0,0,
5,5,5,5,5,5,5,5,0,0,0,0,0,0,0,0,
0,0,0,0,0,0,0,0,0,0,0,0,0,0,0,0,
0,0,0,0,0,0,0,0,0,0,0,0,0,0,0,0,
0,0,0,0,0,0,0,0,0,0,0,0,0,0,0,0,
0,0,0,0,0,0,0,0,0,0,0,0,0,0,0,0,
0,0,0,0,0,0,0,0,0,0,0,0,0,0,0,0,
0,0,0,0,0,0,0,0,0,0,0,0,0,0,0,0,
0,0,0,0,0,0,0,0,0,0,0,0,0,0,0,0,
0,0,0,0,0,0,0,0,0,0,0,0,0,0,0,0,
0,0,0,0,0,0,0,0,0,0,0,0,0,0,0,0,
0,0,0,0,0,0,0,0,0,0,0,0,0,0,0,0,
0,0,0,0,0,0,0,0,0,0,0,0,0,0,0,0,
0,0,0,0,0,0,0,0,0,0,0,0,0,0,0,0
</chunk>
  </data>
 </layer>
 <layer id="2" name="Collisions" width="30" height="20">
  <data encoding="csv">
   <chunk x="0" y="-32" width="16" height="16">
0,0,0,0,0,0,0,0,0,0,0,0,0,0,0,0,
0,0,0,0,0,0,0,0,0,0,0,0,0,0,0,0,
0,0,0,0,0,0,0,0,0,0,0,0,0,0,0,0,
0,0,0,0,0,0,0,0,0,0,0,0,0,0,0,0,
0,0,0,0,0,0,0,0,0,0,0,0,0,0,0,0,
0,0,0,0,0,0,0,0,0,0,0,0,0,0,0,0,
0,0,0,0,0,0,0,0,0,0,0,0,0,0,0,0,
0,0,0,0,0,0,0,0,0,0,0,0,0,0,0,0,
0,0,0,0,0,0,0,0,0,0,0,0,0,0,0,0,
0,0,0,0,0,0,0,0,0,0,0,0,0,0,0,0,
0,0,0,0,0,0,0,0,0,0,0,0,0,0,0,0,
0,0,0,0,0,0,0,0,0,0,0,0,0,0,0,0,
14,14,14,14,14,14,14,14,14,14,14,14,14,14,14,14,
14,0,0,0,0,0,0,0,0,0,0,0,0,0,0,0,
14,0,0,0,0,0,0,0,0,0,0,0,0,0,0,0,
14,0,0,0,0,0,0,0,0,0,0,0,0,0,0,0
</chunk>
   <chunk x="16" y="-32" width="16" height="16">
0,0,0,0,0,0,0,0,0,0,0,0,0,0,0,0,
0,0,0,0,0,0,0,0,0,0,0,0,0,0,0,0,
0,0,0,0,0,0,0,0,0,0,0,0,0,0,0,0,
0,0,0,0,0,0,0,0,0,0,0,0,0,0,0,0,
0,0,0,0,0,0,0,0,0,0,0,0,0,0,0,0,
0,0,0,0,0,0,0,0,0,0,0,0,0,0,0,0,
0,0,0,0,0,0,0,0,0,0,0,0,0,0,0,0,
0,0,0,0,0,0,0,0,0,0,0,0,0,0,0,0,
0,0,0,0,0,0,0,0,0,0,0,0,0,0,0,0,
0,0,0,0,0,0,0,0,0,0,0,0,0,0,0,0,
0,0,0,0,0,0,0,0,0,0,0,0,0,0,0,0,
0,0,0,0,0,0,0,0,0,0,0,0,0,0,0,0,
14,14,14,14,14,14,14,14,14,14,14,14,14,14,14,14,
0,0,0,0,0,0,0,0,0,0,0,0,0,0,0,14,
0,0,0,0,0,0,0,0,0,0,0,0,0,0,0,14,
0,0,0,0,0,0,0,0,0,0,0,0,0,0,0,14
</chunk>
   <chunk x="32" y="-32" width="16" height="16">
0,0,0,0,0,0,0,0,0,0,0,0,0,0,0,0,
0,0,0,0,0,0,0,0,0,0,0,0,0,0,0,0,
0,0,0,0,0,0,0,0,0,0,0,0,0,0,0,0,
0,0,0,0,0,0,0,0,0,0,0,0,0,0,0,0,
0,0,0,0,0,0,0,0,0,0,0,0,0,0,0,0,
0,0,0,0,0,0,0,0,0,0,0,0,0,0,0,0,
0,0,0,0,0,0,0,0,0,0,0,0,0,0,0,0,
0,0,0,0,0,0,0,0,0,0,0,0,0,0,0,0,
0,0,0,0,0,0,0,0,0,0,0,0,0,0,0,0,
0,0,0,0,0,0,0,0,0,0,0,0,0,0,0,0,
0,0,0,0,0,0,0,0,0,0,0,0,0,0,0,0,
0,0,0,0,0,0,0,0,0,0,0,0,0,0,0,0,
14,14,14,14,14,14,14,14,14,14,14,14,14,14,14,14,
14,0,0,0,0,0,0,0,0,0,0,0,0,0,0,0,
14,0,0,0,0,0,0,0,0,0,0,0,0,0,0,0,
14,0,0,0,0,0,0,0,0,0,0,0,0,0,0,0
</chunk>
   <chunk x="48" y="-32" width="16" height="16">
0,0,0,0,0,0,0,0,0,0,0,0,0,0,0,0,
0,0,0,0,0,0,0,0,0,0,0,0,0,0,0,0,
0,0,0,0,0,0,0,0,0,0,0,0,0,0,0,0,
0,0,0,0,0,0,0,0,0,0,0,0,0,0,0,0,
0,0,0,0,0,0,0,0,0,0,0,0,0,0,0,0,
0,0,0,0,0,0,0,0,0,0,0,0,0,0,0,0,
0,0,0,0,0,0,0,0,0,0,0,0,0,0,0,0,
0,0,0,0,0,0,0,0,0,0,0,0,0,0,0,0,
0,0,0,0,0,0,0,0,0,0,0,0,0,0,0,0,
0,0,0,0,0,0,0,0,0,0,0,0,0,0,0,0,
0,0,0,0,0,0,0,0,0,0,0,0,0,0,0,0,
0,0,0,0,0,0,0,0,0,0,0,0,0,0,0,0,
14,14,14,14,14,14,14,14,0,0,0,0,0,0,0,0,
0,0,0,0,0,0,0,14,0,0,0,0,0,0,0,0,
0,0,0,0,0,0,0,14,0,0,0,0,0,0,0,0,
0,0,0,0,0,0,0,14,0,0,0,0,0,0,0,0
</chunk>
   <chunk x="-16" y="-16" width="16" height="16">
0,0,0,0,0,0,0,0,0,0,0,0,0,0,0,0,
0,0,0,0,0,0,0,0,0,0,0,0,0,0,0,0,
0,0,0,0,0,0,0,0,14,14,14,14,14,14,14,14,
0,0,0,0,0,0,0,0,14,0,0,0,0,0,0,14,
0,0,0,0,0,0,0,0,14,0,0,0,0,0,0,14,
0,0,0,0,0,0,0,0,14,0,0,0,0,0,0,0,
0,0,0,0,0,0,0,0,14,0,0,0,0,0,0,0,
0,0,0,0,0,0,0,0,14,0,0,0,0,0,0,0,
0,0,0,0,0,0,0,0,14,0,0,0,0,0,0,14,
0,0,0,0,0,0,0,0,14,0,0,0,0,0,0,14,
0,0,0,0,0,0,0,0,14,0,0,0,0,0,0,14,
0,0,0,0,0,0,0,0,14,0,0,0,0,0,0,14,
0,0,0,0,0,0,0,0,14,0,0,0,0,0,0,14,
0,0,0,0,0,0,0,0,14,14,14,14,14,14,14,14,
0,0,0,0,0,0,0,0,0,0,0,0,0,0,0,0,
0,0,0,0,0,0,0,0,0,0,0,0,0,0,0,0
</chunk>
   <chunk x="0" y="-16" width="16" height="16">
14,0,0,0,0,0,0,0,0,0,0,0,0,0,0,0,
14,0,0,0,0,0,0,0,0,0,0,0,0,0,0,0,
14,0,0,0,0,0,0,0,0,0,0,0,0,0,0,0,
14,0,0,0,0,0,0,0,0,0,0,0,0,0,0,0,
14,0,0,0,0,0,0,0,0,0,0,0,0,0,0,0,
0,0,0,0,0,0,0,0,0,0,0,0,0,0,0,0,
0,0,0,0,0,0,0,0,0,0,0,0,0,0,0,0,
0,0,0,0,0,0,0,0,0,0,0,0,0,0,0,0,
14,0,0,0,0,0,0,0,0,0,0,0,0,0,0,0,
14,0,0,0,0,0,0,0,0,0,0,0,0,0,0,0,
14,0,0,0,0,0,0,0,0,0,0,0,0,0,0,0,
14,0,0,0,0,0,0,0,0,0,0,0,0,0,0,0,
14,0,0,0,0,0,0,0,0,0,0,0,0,0,0,0,
14,0,0,0,0,0,0,0,0,0,0,0,0,0,0,0,
14,0,0,0,0,0,0,0,0,0,0,0,0,0,0,0,
14,0,0,0,0,0,0,0,0,0,0,0,0,0,0,0
</chunk>
   <chunk x="16" y="-16" width="16" height="16">
0,0,0,0,0,0,0,0,0,0,0,0,0,0,0,14,
0,0,0,0,0,0,0,0,0,0,0,0,0,0,0,14,
0,0,0,0,0,0,0,0,0,0,0,0,0,0,0,14,
0,0,0,0,0,0,0,0,0,0,0,0,0,0,0,14,
0,0,0,0,0,0,0,0,0,0,0,0,0,0,0,0,
0,0,0,0,0,0,0,0,0,0,0,0,0,0,0,0,
0,0,0,0,0,0,0,0,0,0,0,0,0,0,0,0,
0,0,0,0,0,0,0,0,0,0,0,0,0,0,0,0,
0,0,0,0,0,0,0,0,0,0,0,0,0,0,0,0,
0,0,0,0,0,0,0,0,0,0,0,0,0,0,0,0,
0,0,0,0,0,0,0,0,0,0,0,0,0,0,0,0,
0,0,0,0,0,0,0,0,0,0,0,0,0,0,0,0,
0,0,0,0,0,0,0,0,0,0,0,0,0,0,0,14,
0,0,0,0,0,0,0,0,0,0,0,0,0,0,0,14,
0,0,0,0,0,0,0,0,0,0,0,0,0,0,0,14,
0,0,0,0,0,0,0,0,0,0,0,0,0,0,0,14
</chunk>
   <chunk x="32" y="-16" width="16" height="16">
14,0,0,0,0,0,0,0,0,0,0,0,0,0,0,0,
14,0,0,0,0,0,0,0,0,0,0,0,0,0,0,0,
14,0,0,0,0,0,0,0,0,0,0,0,0,0,0,0,
14,0,0,0,0,0,0,0,0,0,0,0,0,0,0,0,
0,0,0,0,0,0,0,0,0,0,0,0,0,0,0,0,
0,0,0,0,0,0,0,0,0,0,0,0,0,0,0,0,
0,0,0,0,0,0,0,0,0,0,0,0,0,0,0,0,
0,0,0,0,0,0,0,0,0,0,0,0,0,0,0,0,
0,0,0,0,0,0,0,0,0,0,0,0,0,0,0,0,
0,0,0,0,0,0,0,0,0,0,0,0,0,0,0,0,
0,0,0,0,0,0,0,0,0,0,0,0,0,0,0,0,
0,0,0,0,0,0,0,0,0,0,0,0,0,0,0,0,
14,0,0,0,0,0,0,0,0,0,0,0,0,0,0,0,
14,0,0,0,0,0,0,0,0,0,0,0,0,0,0,0,
14,0,0,0,0,0,0,0,0,0,0,0,0,0,0,0,
14,0,0,0,0,0,0,0,0,0,0,0,0,0,0,0
</chunk>
   <chunk x="48" y="-16" width="16" height="16">
0,0,0,0,0,0,0,14,0,0,0,0,0,0,0,0,
0,0,0,0,0,0,0,14,0,0,0,0,0,0,0,0,
0,0,0,0,0,0,0,14,0,0,0,0,0,0,0,0,
0,0,0,0,0,0,0,14,0,0,0,0,0,0,0,0,
0,0,0,0,0,0,0,14,0,0,0,0,0,0,0,0,
0,0,0,0,0,0,0,14,0,0,0,0,0,0,0,0,
0,0,0,0,0,0,0,14,0,0,0,0,0,0,0,0,
0,0,0,0,0,0,0,14,0,0,0,0,0,0,0,0,
0,0,0,0,0,0,0,14,0,0,0,0,0,0,0,0,
0,0,0,0,0,0,0,14,0,0,0,0,0,0,0,0,
0,0,0,0,0,0,0,14,0,0,0,0,0,0,0,0,
0,0,0,0,0,0,0,14,0,0,0,0,0,0,0,0,
0,0,0,0,0,0,0,14,0,0,0,0,0,0,0,0,
0,0,0,0,0,0,0,14,0,0,0,0,0,0,0,0,
0,0,0,0,0,0,0,14,0,0,0,0,0,0,0,0,
0,0,0,0,0,0,0,14,0,0,0,0,0,0,0,0
</chunk>
   <chunk x="0" y="0" width="16" height="16">
14,0,0,0,0,0,0,0,0,0,0,0,0,0,0,0,
14,0,0,0,0,0,0,0,0,0,0,0,0,0,0,0,
14,0,0,0,0,0,0,0,0,0,0,0,0,0,0,0,
14,0,0,0,0,0,0,0,0,0,0,0,0,0,0,0,
14,0,0,0,0,0,0,0,0,0,0,0,0,0,0,0,
14,0,0,0,0,0,0,0,0,0,0,0,0,0,0,0,
14,0,0,0,0,0,0,0,0,0,0,0,0,0,0,0,
14,0,0,0,0,0,0,0,0,0,0,0,0,0,0,0,
14,0,0,0,0,0,0,0,0,0,0,0,0,0,0,0,
14,14,14,14,14,14,14,14,14,14,14,14,14,14,14,14,
0,0,0,0,0,0,0,0,0,0,0,0,0,0,0,0,
0,0,0,0,0,0,0,0,0,0,0,0,0,0,0,0,
0,0,0,0,0,0,0,0,0,0,0,0,0,0,0,0,
0,0,0,0,0,0,0,0,0,0,0,0,0,0,0,0,
0,0,0,0,0,0,0,0,0,0,0,0,0,0,0,0,
0,0,0,0,0,0,0,0,0,0,0,0,0,0,0,0
</chunk>
   <chunk x="16" y="0" width="16" height="16">
0,0,0,0,0,0,0,0,0,0,0,0,0,0,0,14,
0,0,0,0,0,0,0,0,0,0,0,0,0,0,0,14,
0,0,0,0,0,0,0,0,0,0,0,0,0,0,0,14,
0,0,0,0,0,0,0,0,0,0,0,0,0,0,0,14,
0,0,0,0,0,0,0,0,0,0,0,0,0,0,0,14,
0,0,0,0,0,0,0,0,0,0,0,0,0,0,0,14,
0,0,0,0,0,0,0,0,0,0,0,0,0,0,0,14,
0,0,0,0,0,0,0,0,0,0,0,0,0,0,0,14,
0,0,0,0,0,0,0,0,0,0,0,0,0,0,0,14,
14,14,14,14,14,14,14,14,14,14,14,14,14,14,14,14,
0,0,0,0,0,0,0,0,0,0,0,0,0,0,0,0,
0,0,0,0,0,0,0,0,0,0,0,0,0,0,0,0,
0,0,0,0,0,0,0,0,0,0,0,0,0,0,0,0,
0,0,0,0,0,0,0,0,0,0,0,0,0,0,0,0,
0,0,0,0,0,0,0,0,0,0,0,0,0,0,0,0,
0,0,0,0,0,0,0,0,0,0,0,0,0,0,0,0
</chunk>
   <chunk x="32" y="0" width="16" height="16">
14,0,0,0,0,0,0,0,0,0,0,0,0,0,0,0,
14,0,0,0,0,0,0,0,0,0,0,0,0,0,0,0,
14,0,0,0,0,0,0,0,0,0,0,0,0,0,0,0,
14,14,14,14,14,14,14,14,14,14,14,14,14,14,14,14,
0,0,0,0,0,0,0,0,0,0,0,0,0,0,0,0,
0,0,0,0,0,0,0,0,0,0,0,0,0,0,0,0,
0,0,0,0,0,0,0,0,0,0,0,0,0,0,0,0,
0,0,0,0,0,0,0,0,0,0,0,0,0,0,0,0,
0,0,0,0,0,0,0,0,0,0,0,0,0,0,0,0,
0,0,0,0,0,0,0,0,0,0,0,0,0,0,0,0,
0,0,0,0,0,0,0,0,0,0,0,0,0,0,0,0,
0,0,0,0,0,0,0,0,0,0,0,0,0,0,0,0,
0,0,0,0,0,0,0,0,0,0,0,0,0,0,0,0,
0,0,0,0,0,0,0,0,0,0,0,0,0,0,0,0,
0,0,0,0,0,0,0,0,0,0,0,0,0,0,0,0,
0,0,0,0,0,0,0,0,0,0,0,0,0,0,0,0
</chunk>
   <chunk x="48" y="0" width="16" height="16">
0,0,0,0,0,0,0,14,0,0,0,0,0,0,0,0,
0,0,0,0,0,0,0,14,0,0,0,0,0,0,0,0,
0,0,0,0,0,0,0,14,0,0,0,0,0,0,0,0,
14,14,14,14,14,14,14,14,0,0,0,0,0,0,0,0,
0,0,0,0,0,0,0,0,0,0,0,0,0,0,0,0,
0,0,0,0,0,0,0,0,0,0,0,0,0,0,0,0,
0,0,0,0,0,0,0,0,0,0,0,0,0,0,0,0,
0,0,0,0,0,0,0,0,0,0,0,0,0,0,0,0,
0,0,0,0,0,0,0,0,0,0,0,0,0,0,0,0,
0,0,0,0,0,0,0,0,0,0,0,0,0,0,0,0,
0,0,0,0,0,0,0,0,0,0,0,0,0,0,0,0,
0,0,0,0,0,0,0,0,0,0,0,0,0,0,0,0,
0,0,0,0,0,0,0,0,0,0,0,0,0,0,0,0,
0,0,0,0,0,0,0,0,0,0,0,0,0,0,0,0,
0,0,0,0,0,0,0,0,0,0,0,0,0,0,0,0,
0,0,0,0,0,0,0,0,0,0,0,0,0,0,0,0
</chunk>
  </data>
 </layer>
</map>
